flaticon/sport/basketball-jersey.svg

<svg xmlns="http://www.w3.org/2000/svg" width="32" height="32" viewBox="0 0 24 24">
    <path d="M14.714844 10L13.855469 10C12.894531 10 12.171875 10.6875 12.171875 11.601562 12.171875 12.089844 12.386719 12.511719 12.730469 12.800781 12.386719 13.089844 12.171875 13.507812 12.171875 14 12.171875 14.910156 12.894531 15.601562 13.855469 15.601562L14.714844 15.601562C15.675781 15.601562 16.398438 14.910156 16.398438 14 16.398438 13.507812 16.1875 13.089844 15.84375 12.800781 16.1875 12.511719 16.398438 12.089844 16.398438 11.601562 16.398438 10.6875 15.675781 10 14.714844 10zM14.714844 14.800781L13.855469 14.800781C13.417969 14.800781 12.972656 14.523438 12.972656 14 12.972656 13.476562 13.417969 13.199219 13.855469 13.199219L14.714844 13.199219C15.15625 13.199219 15.601562 13.472656 15.601562 14 15.601562 14.527344 15.15625 14.800781 14.714844 14.800781zM14.714844 12.398438L13.855469 12.398438C13.417969 12.398438 12.972656 12.125 12.972656 11.601562 12.972656 11.074219 13.417969 10.800781 13.855469 10.800781L14.714844 10.800781C15.15625 10.800781 15.601562 11.074219 15.601562 11.601562 15.601562 12.125 15.15625 12.398438 14.714844 12.398438zM10.144531 10L9.285156 10C8.324219 10 7.601562 10.6875 7.601562 11.601562 7.601562 12.089844 7.8125 12.511719 8.15625 12.800781 7.8125 13.089844 7.601562 13.507812 7.601562 14 7.601562 14.910156 8.324219 15.601562 9.285156 15.601562L10.144531 15.601562C11.105469 15.601562 11.828125 14.910156 11.828125 14 11.828125 13.507812 11.613281 13.089844 11.269531 12.800781 11.613281 12.511719 11.828125 12.089844 11.828125 11.601562 11.828125 10.6875 11.105469 10 10.144531 10zM10.144531 14.800781L9.285156 14.800781C8.84375 14.800781 8.398438 14.523438 8.398438 14 8.398438 13.476562 8.84375 13.199219 9.285156 13.199219L10.144531 13.199219C10.582031 13.199219 11.027344 13.476562 11.027344 14 11.027344 14.523438 10.582031 14.800781 10.144531 14.800781zM10.144531 12.398438L9.285156 12.398438C8.84375 12.398438 8.398438 12.125 8.398438 11.601562 8.398438 11.074219 8.84375 10.800781 9.285156 10.800781L10.144531 10.800781C10.582031 10.800781 11.027344 11.074219 11.027344 11.601562 11.027344 12.125 10.582031 12.398438 10.144531 12.398438zM10.144531 12.398438"/>
    <path d="M 20.195312 10.050781 C 20.023438 9.953125 19.863281 9.847656 19.714844 9.730469 C 19.710938 9.730469 19.710938 9.726562 19.707031 9.726562 C 18.671875 8.902344 18.238281 7.589844 18.429688 5.804688 C 18.644531 3.761719 19.578125 1.863281 19.859375 1.328125 C 20.019531 1.027344 19.996094 0.671875 19.804688 0.390625 C 19.613281 0.113281 19.28125 -0.0351562 18.945312 0.0078125 L 17.027344 0.246094 C 16.722656 0.285156 16.460938 0.472656 16.328125 0.75 C 16.265625 0.871094 16.1875 1.027344 16.089844 1.207031 C 14.945312 1.644531 13.605469 1.878906 12.199219 1.878906 C 10.574219 1.878906 9.019531 1.558594 7.792969 0.984375 C 7.746094 0.898438 7.707031 0.816406 7.671875 0.746094 C 7.539062 0.472656 7.277344 0.285156 6.972656 0.246094 L 5.054688 0.0078125 C 4.71875 -0.0351562 4.386719 0.113281 4.195312 0.390625 C 4.003906 0.667969 3.980469 1.027344 4.140625 1.328125 C 4.421875 1.863281 5.355469 3.761719 5.570312 5.804688 C 5.761719 7.589844 5.328125 8.902344 4.292969 9.722656 C 4.289062 9.726562 4.285156 9.730469 4.285156 9.730469 C 4.136719 9.847656 3.976562 9.953125 3.804688 10.050781 C 3.679688 10.121094 3.601562 10.253906 3.601562 10.398438 L 3.601562 23.601562 C 3.601562 23.820312 3.777344 24 4 24 L 20 24 C 20.222656 24 20.398438 23.820312 20.398438 23.601562 L 20.398438 10.398438 C 20.398438 10.253906 20.320312 10.121094 20.195312 10.050781 Z M 5.601562 23.199219 L 4.398438 23.199219 L 4.398438 10.628906 C 4.886719 10.324219 5.289062 9.960938 5.601562 9.53125 Z M 15.421875 2.265625 C 14.976562 2.886719 14.410156 3.53125 13.722656 4.003906 C 13 4.503906 12.105469 4.644531 11.28125 4.445312 C 10.929688 4.359375 10.585938 4.21875 10.277344 4.003906 C 10.09375 3.878906 9.914062 3.734375 9.746094 3.585938 C 9.742188 3.582031 9.742188 3.582031 9.738281 3.578125 C 9.234375 3.128906 8.808594 2.601562 8.476562 2.113281 C 10.558594 2.796875 13.253906 2.855469 15.421875 2.265625 Z M 17.632812 5.71875 C 17.578125 6.21875 17.578125 6.683594 17.613281 7.125 C 17.609375 7.148438 17.601562 7.171875 17.601562 7.199219 L 17.601562 23.199219 L 6.398438 23.199219 L 6.398438 7.167969 C 6.398438 7.144531 6.390625 7.121094 6.386719 7.097656 C 6.417969 6.664062 6.417969 6.207031 6.367188 5.71875 C 6.136719 3.535156 5.144531 1.523438 4.847656 0.957031 C 4.820312 0.910156 4.835938 0.871094 4.855469 0.847656 C 4.871094 0.820312 4.902344 0.792969 4.957031 0.800781 L 6.871094 1.042969 C 6.910156 1.046875 6.9375 1.066406 6.957031 1.097656 C 7.007812 1.207031 7.074219 1.335938 7.152344 1.484375 C 7.152344 1.484375 7.15625 1.488281 7.15625 1.488281 C 7.496094 2.117188 8.082031 3.0625 8.894531 3.878906 C 8.902344 3.886719 8.910156 3.894531 8.917969 3.902344 C 9.050781 4.035156 9.1875 4.160156 9.328125 4.28125 C 9.34375 4.292969 9.359375 4.304688 9.371094 4.316406 C 9.519531 4.4375 9.667969 4.554688 9.824219 4.664062 C 11.125 5.5625 12.875 5.5625 14.175781 4.664062 C 14.308594 4.574219 14.4375 4.472656 14.5625 4.375 C 14.589844 4.351562 14.617188 4.328125 14.644531 4.304688 C 14.761719 4.203125 14.878906 4.101562 14.992188 3.992188 C 15 3.984375 15.007812 3.976562 15.019531 3.96875 C 15.121094 3.867188 15.222656 3.761719 15.320312 3.65625 C 15.34375 3.628906 15.371094 3.601562 15.394531 3.574219 C 15.496094 3.464844 15.59375 3.351562 15.6875 3.238281 C 15.695312 3.222656 15.707031 3.207031 15.71875 3.195312 C 15.808594 3.085938 15.890625 2.976562 15.972656 2.867188 C 15.984375 2.847656 16 2.832031 16.011719 2.8125 C 16.101562 2.691406 16.183594 2.570312 16.265625 2.453125 C 16.265625 2.449219 16.269531 2.445312 16.273438 2.4375 C 16.636719 1.894531 16.898438 1.402344 17.046875 1.097656 C 17.0625 1.066406 17.09375 1.046875 17.128906 1.039062 L 19.046875 0.800781 C 19.101562 0.792969 19.128906 0.824219 19.148438 0.847656 C 19.164062 0.871094 19.179688 0.910156 19.152344 0.957031 C 18.855469 1.523438 17.863281 3.535156 17.632812 5.71875 Z M 19.601562 23.199219 L 18.398438 23.199219 L 18.398438 9.53125 C 18.710938 9.960938 19.113281 10.324219 19.601562 10.628906 Z M 19.601562 23.199219"/>
</svg>

<svg xmlns="http://www.w3.org/2000/svg" width="32" height="32" viewBox="0 0 24 24">
    <path d="M14.715 10h-.86c-.96 0-1.683.688-1.683 1.602 0 .488.215.91.558 1.199-.343.289-.558.707-.558 1.199 0 .91.723 1.602 1.683 1.602h.86c.96 0 1.683-.692 1.683-1.602 0-.492-.21-.91-.554-1.2.344-.288.554-.71.554-1.198 0-.915-.722-1.602-1.683-1.602zm0 4.8h-.86c-.437 0-.882-.277-.882-.8s.445-.8.882-.8h.86c.441 0 .887.273.887.8s-.446.8-.887.8zm0-2.402h-.86c-.437 0-.882-.273-.882-.796 0-.528.445-.801.882-.801h.86c.441 0 .887.273.887.8 0 .524-.446.797-.887.797zm0 0M10.145 10h-.86c-.96 0-1.683.688-1.683 1.602 0 .488.21.91.554 1.199-.344.289-.554.707-.554 1.199 0 .91.722 1.602 1.683 1.602h.86c.96 0 1.683-.692 1.683-1.602 0-.492-.215-.91-.558-1.2.343-.288.558-.71.558-1.198 0-.915-.723-1.602-1.683-1.602zm0 4.8h-.86c-.441 0-.887-.277-.887-.8s.446-.8.887-.8h.86c.437 0 .882.277.882.8s-.445.8-.882.8zm0-2.402h-.86c-.441 0-.887-.273-.887-.796 0-.528.446-.801.887-.801h.86c.437 0 .882.273.882.8 0 .524-.445.797-.882.797zm0 0"/>
    <path d="M20.195 10.05a3.805 3.805 0 0 1-.48-.32c-.004 0-.004-.003-.008-.003-1.035-.825-1.469-2.137-1.277-3.922.215-2.043 1.148-3.942 1.43-4.477a.905.905 0 0 0-.914-1.32l-1.919.238a.898.898 0 0 0-.699.504c-.062.121-.14.277-.238.457-1.145.438-2.485.672-3.89.672-1.626 0-3.18-.32-4.407-.895-.047-.086-.086-.168-.121-.238a.902.902 0 0 0-.7-.5L5.056.008a.905.905 0 0 0-.914 1.32c.28.535 1.214 2.434 1.43 4.477.19 1.785-.243 3.097-1.278 3.918l-.008.007a3.805 3.805 0 0 1-.48.32.399.399 0 0 0-.203.348v13.204c0 .218.175.398.398.398h16c.223 0 .398-.18.398-.398V10.398a.399.399 0 0 0-.203-.347zM5.602 23.2H4.398V10.628c.489-.305.891-.668 1.204-1.098zm9.82-20.934c-.445.62-1.012 1.265-1.7 1.738-.722.5-1.617.64-2.44.441a2.988 2.988 0 0 1-1.005-.441 5.429 5.429 0 0 1-.53-.418l-.009-.008a8.022 8.022 0 0 1-1.261-1.465c2.082.684 4.777.742 6.945.153zm2.21 3.453c-.054.5-.054.965-.019 1.406-.004.023-.011.047-.011.074v16H6.398V7.168c0-.023-.007-.047-.011-.07a7.81 7.81 0 0 0-.02-1.38c-.23-2.183-1.222-4.195-1.52-4.761a.09.09 0 0 1 .008-.11.094.094 0 0 1 .102-.046l1.914.242a.11.11 0 0 1 .086.055c.05.109.117.238.195.386l.004.004c.34.63.926 1.575 1.739 2.39a7.475 7.475 0 0 0 .434.402l.042.036c.149.122.297.239.453.348a3.85 3.85 0 0 0 4.352 0c.133-.09.261-.191.386-.289l.083-.07c.117-.102.234-.203.347-.313.008-.008.016-.015.028-.023.101-.102.203-.207.3-.313.024-.027.051-.054.075-.082.101-.11.199-.222.293-.336a.173.173 0 0 1 .03-.043c.09-.11.173-.218.255-.328.011-.02.027-.035.039-.054.09-.122.172-.243.254-.36 0-.004.004-.008.007-.015.364-.543.625-1.036.774-1.34a.117.117 0 0 1 .082-.059l1.918-.238c.055-.008.082.023.101.047a.098.098 0 0 1 .004.109c-.297.566-1.289 2.578-1.52 4.762zm1.97 17.48h-1.204V9.531c.313.43.715.793 1.204 1.098zm0 0"/>
</svg>
